X: 125
T: Ay mı Doğmuş
C: İsmail Hakkı Bey
O: Turkey
F: http://compmusic.upf.edu/node/140
N: hicazkar--kocekce--devrihindi--ay_mi--muallim_ismail_hakki_bey
N: makam= hicazkar
N: form= kocekce
N: usul= devrihindi = 7/4
M: 7/4
L: 1/16
K: C _1/4B _7/8e _7/8A ^f
Q: 1/4=156
%%MIDI tuningsystem comma53
_b2 =a2 g2 f2 e2 ed c2  | _b2 =a2 g2 fg af g2 z2  | \
w:  ARANAĞME  |   | 
_b2 =a2 g2 f2 e2 ed c2  | 
w:   | 
e2 d2 c2 Bc dB c2 z2  | _b2 =a2 g2 f2 e2 ed c2  | \
w:   |  ARANAĞME  | 
_b2 =a2 g2 fg af g2 z2  | 
w:   | 
_b2 =a2 g2 f2 e2 ed c2  | e2 d2 c2 Bc dB c2 z2  | \
w:   |   | 
g4 g2 g3f g4  | 
w:  Ay  mı  doğ *  muş   | 
=a4 g2 g3f f4  | =a2 g2 _b2 a2 g2 f4  | \
w:  gün  mü  doğ *  muş   |  â *  *  lem   | 
d2 e2 f2 d4 g2 z2  | g4 g2 g3f g4  | 
w:  rû *  *  şen    |  Ay  mı  doğ *  muş   | 
=a4 g2 g3f f4  | =a2 g2 _b2 a2 g2 f4  | \
w:  gün  mü  doğ *  muş   |  â *  *  lem   | 
d2 e2 f2 d4 z4  | g2 =f2 _2/4e2 g2 z2 =a2 g2  | 
w:  rû *  *  şen    |  SAZ  | 
=a2 g2 =f2 f2 _2/4e2 ed c2  | g2 =f2 _2/4e2 =a2 z2 g4  | \
w:   |   | 
g=a g2 =f2 _2/4ef ed c2 z2  | 
w:   | 
g2 =f2 _2/4e2 g2 z2 =a2 g2  | =a2 g2 =f2 f2 _2/4e2 ed c2  | \
w:  SAZ  |   | 
g2 =f2 _2/4e2 =a2 z2 g4  | 
w:   | 
g=a g2 =f2 _2/4e2 f2 g2 z2  | g4 g2 g4 g4  | \
w:   |  İ ki  ka şın   | 
c'4 _b=a ag gf g4  | g4 =a2 =f4 _2/4e4  | 
w:  a ra *  sın *  *  *  da   |  bir  e lif  ni  | 
g8-g2 gf e2  | e8-e2 ed c2  | c4 c2 c4 c4  | \
w:  şan    |   |   | 
g2 =f2 _2/4e2 f2 e2 =a2 g2  | 
w:  SAZ  | 
g=a g2 =f2 _2/4e2 f2 g2 z2  | g2 =f2 _2/4e2 f2 e2 =a2 g2  | \
w:   |   | 
g=a g2 =f2 _2/4ef ed c2 z2  | 
w:   | 
g2 =f2 _2/4e2 f2 e2 =a2 g2  | g=a g2 =f2 _2/4e2 f2 g2 z2  | \
w:  SAZ  |   | 
g2 =f2 _2/4e2 f2 e2 =a2 g2  | 
w:   | 
g=a g2 =f2 _2/4ef ed c2 z2  | d2 d2 =e2 =f4 e4  | \
w:   |  E lâ  *  göz lüm   | 
d4 c2 _2/4B3=A G4  | c2 c2 d2 _2/4e4 c4  | 
w:  top  zü lüf *  lüm   |  ne  ol *  du  sa  | 
g8-g2 z4  | f2 g2 a2 g2 f2 e2 d2  | f4 g2 e3d c4  | \
w:  na    |  Ne  ol *  duy *  sa   |  yâr  ba na  *  ol  | 
d4 f2 e4 d4  | c2 B2 c2 d4 z4  | 
w:  du  ne  ol  |  du  *  sa na    | 
=f4 f2 f3_2/4e g4  | =f4 e2 d3c B4  | \
w:  yâr   |  yâr  *  ne  *  ol  | 
G2 A2 B4 G4 z2  | |


